austria/municipalities/41752.svg

<?xml version="1.0" encoding="UTF-8"?>
<!DOCTYPE svg PUBLIC "-//W3C//DTD SVG 1.1//EN" "http://www.w3.org/Graphics/SVG/1.1/DTD/svg11.dtd">
<svg xmlns="http://www.w3.org/2000/svg" version="1.1" width="166px" height="207px" style="shape-rendering:geometricPrecision; text-rendering:geometricPrecision; image-rendering:optimizeQuality; fill-rule:evenodd; clip-rule:evenodd" xmlns:xlink="http://www.w3.org/1999/xlink">
<g><path style="opacity:1" fill="#050200" d="M -0.5,-0.5 C 54.8333,-0.5 110.167,-0.5 165.5,-0.5C 165.5,44.1667 165.5,88.8333 165.5,133.5C 157.503,172.498 134.169,196.831 95.5,206.5C 86.8333,206.5 78.1667,206.5 69.5,206.5C 29.593,196.928 6.25968,171.928 -0.5,131.5C -0.5,87.5 -0.5,43.5 -0.5,-0.5 Z"/></g>
<g><path style="opacity:1" fill="#eba82d" d="M 74.5,23.5 C 75.0487,16.9756 76.3821,10.6422 78.5,4.5C 68.3194,4.17265 58.3194,4.50598 48.5,5.5C 47.9569,5.44001 47.6236,5.10667 47.5,4.5C 58.4849,3.33425 69.4849,3.16758 80.5,4C 78.5537,10.6113 76.5537,17.1113 74.5,23.5 Z"/></g>
<g><path style="opacity:1" fill="#fea603" d="M 40.5,9.5 C 35.7653,28.4543 30.4319,47.1209 24.5,65.5C 22.9642,67.0251 21.9642,69.0251 21.5,71.5C 18.8333,80.8333 16.1667,90.1667 13.5,99.5C 11.857,104.734 10.857,110.067 10.5,115.5C 9.73878,120.437 8.40545,125.103 6.5,129.5C 4.50553,88.18 3.83886,46.5134 4.5,4.5C 16.5,4.5 28.5,4.5 40.5,4.5C 40.5,6.16667 40.5,7.83333 40.5,9.5 Z"/></g>
<g><path style="opacity:1" fill="#fba60d" d="M 74.5,23.5 C 71.9773,34.5701 69.144,45.5701 66,56.5C 59.2615,39.7839 53.4282,22.7839 48.5,5.5C 58.3194,4.50598 68.3194,4.17265 78.5,4.5C 76.3821,10.6422 75.0487,16.9756 74.5,23.5 Z"/></g>
<g><path style="opacity:1" fill="#fba60f" d="M 84.5,4.5 C 95.3404,3.17624 106.34,3.17624 117.5,4.5C 111.963,21.9444 106.13,39.2778 100,56.5C 94.4969,39.1303 89.3303,21.7969 84.5,4.5 Z"/></g>
<g><path style="opacity:1" fill="#fda605" d="M 158.5,129.5 C 146.594,89.7674 135.261,49.7674 124.5,9.5C 124.5,7.83333 124.5,6.16667 124.5,4.5C 136.5,4.5 148.5,4.5 160.5,4.5C 160.667,46.8346 160.5,89.168 160,131.5C 159.722,130.584 159.222,129.918 158.5,129.5 Z"/></g>
<g><path style="opacity:1" fill="#eba82d" d="M 40.5,9.5 C 40.5,7.83333 40.5,6.16667 40.5,4.5C 28.5,4.5 16.5,4.5 4.5,4.5C 3.83886,46.5134 4.50553,88.18 6.5,129.5C 6.16198,131.854 5.66198,134.187 5,136.5C 4.66667,136.167 4.33333,135.833 4,135.5C 3.50001,91.5013 3.33334,47.5013 3.5,3.5C 16.5,3.5 29.5,3.5 42.5,3.5C 42.405,5.7857 41.7384,7.7857 40.5,9.5 Z"/></g>
<g><path style="opacity:1" fill="#02602b" d="M 44.5,4.5 C 51.3339,24.1349 58.3339,43.8016 65.5,63.5C 71.156,44.2178 76.8227,24.8845 82.5,5.5C 88.0312,24.966 93.8645,44.2993 100,63.5C 106.973,44.2761 113.64,24.9428 120,5.5C 133.674,51.2104 146.84,97.0437 159.5,143C 149.985,175.516 128.651,195.183 95.5,202C 56.7255,205.845 28.2255,190.679 10,156.5C 8.49793,151.822 6.99793,147.155 5.5,142.5C 18.909,96.6074 31.909,50.6074 44.5,4.5 Z"/></g>
<g><path style="opacity:1" fill="#e9a82d" d="M 158.5,129.5 C 159.222,129.918 159.722,130.584 160,131.5C 160.5,89.168 160.667,46.8346 160.5,4.5C 148.5,4.5 136.5,4.5 124.5,4.5C 124.5,6.16667 124.5,7.83333 124.5,9.5C 123.262,7.7857 122.595,5.7857 122.5,3.5C 135.5,3.5 148.5,3.5 161.5,3.5C 161.833,47.8383 161.5,92.1717 160.5,136.5C 159.365,134.293 158.699,131.96 158.5,129.5 Z"/></g>
<g><path style="opacity:1" fill="#0c0500" d="M 78.5,90.5 C 108.754,92.2523 123.587,108.252 123,138.5C 116.375,163.455 100.209,174.622 74.5,172C 56.0196,167.186 45.1862,155.352 42,136.5C 41.5502,111.033 53.7169,95.6998 78.5,90.5 Z"/></g>
<g><path style="opacity:1" fill="#fda605" d="M 50.5,152.5 C 46.8822,142.16 45.7155,131.493 47,120.5C 49.392,117.604 50.5587,114.27 50.5,110.5C 61.7534,94.8035 76.7534,89.6368 95.5,95C 115.787,104.502 123.954,120.335 120,142.5C 109.547,167.441 91.3804,175.607 65.5,167C 59.2878,163.286 54.2878,158.452 50.5,152.5 Z"/></g>
<g><path style="opacity:1" fill="#eda829" d="M 24.5,65.5 C 20.2005,82.3666 15.5339,99.0333 10.5,115.5C 10.857,110.067 11.857,104.734 13.5,99.5C 16.1667,90.1667 18.8333,80.8333 21.5,71.5C 21.9642,69.0251 22.9642,67.0251 24.5,65.5 Z"/></g>
<g><path style="opacity:1" fill="#eda82b" d="M 50.5,110.5 C 50.5587,114.27 49.392,117.604 47,120.5C 45.7155,131.493 46.8822,142.16 50.5,152.5C 45.7163,146.463 43.7163,139.463 44.5,131.5C 43.943,123.656 45.943,116.656 50.5,110.5 Z"/></g>
<g><path style="opacity:1" fill="#fefefe" d="M -0.5,131.5 C 6.25968,171.928 29.593,196.928 69.5,206.5C 46.1667,206.5 22.8333,206.5 -0.5,206.5C -0.5,181.5 -0.5,156.5 -0.5,131.5 Z"/></g>
<g><path style="opacity:1" fill="#fefefe" d="M 165.5,133.5 C 165.5,157.833 165.5,182.167 165.5,206.5C 142.167,206.5 118.833,206.5 95.5,206.5C 134.169,196.831 157.503,172.498 165.5,133.5 Z"/></g>
</svg>

<svg xmlns="http://www.w3.org/2000/svg" width="166" height="207" style="shape-rendering:geometricPrecision;text-rendering:geometricPrecision;image-rendering:optimizeQuality;fill-rule:evenodd;clip-rule:evenodd"><path style="opacity:1" fill="#050200" d="M-.5-.5h166v134c-7.997 38.998-31.331 63.331-70 73h-26c-39.907-9.572-63.24-34.572-70-75V-.5z"/><path style="opacity:1" fill="#eba82d" d="M74.5 23.5a78.15 78.15 0 0 1 4-19c-10.18-.327-20.18.006-30 1-.543-.06-.876-.393-1-1a182.062 182.062 0 0 1 33-.5 825.327 825.327 0 0 1-6 19.5z"/><path style="opacity:1" fill="#fea603" d="M40.5 9.5a863.899 863.899 0 0 1-16 56c-1.536 1.525-2.536 3.525-3 6l-8 28a68.159 68.159 0 0 0-3 16c-.761 4.937-2.095 9.603-4 14-1.994-41.32-2.661-82.987-2-125h36v5z"/><path style="opacity:1" fill="#fba60d" d="M74.5 23.5a608.136 608.136 0 0 1-8.5 33 511.318 511.318 0 0 1-17.5-51c9.82-.994 19.82-1.327 30-1a78.15 78.15 0 0 0-4 19z"/><path style="opacity:1" fill="#fba60f" d="M84.5 4.5c10.84-1.324 21.84-1.324 33 0a1585.547 1585.547 0 0 1-17.5 52 1572.955 1572.955 0 0 1-15.5-52z"/><path style="opacity:1" fill="#fda605" d="M158.5 129.5a4157.064 4157.064 0 0 1-34-120v-5h36c.167 42.335 0 84.668-.5 127-.278-.916-.778-1.582-1.5-2z"/><path style="opacity:1" fill="#eba82d" d="M40.5 9.5v-5h-36c-.661 42.013.006 83.68 2 125a52.567 52.567 0 0 1-1.5 7l-1-1c-.5-43.999-.667-87.999-.5-132h39c-.095 2.286-.762 4.286-2 6z"/><path style="opacity:1" fill="#02602b" d="M44.5 4.5a4482.218 4482.218 0 0 0 21 59c5.656-19.282 11.323-38.615 17-58a1867.436 1867.436 0 0 0 17.5 58 1927.79 1927.79 0 0 0 20-58A6544.381 6544.381 0 0 1 159.5 143c-9.515 32.516-30.849 52.183-64 59-38.775 3.845-67.275-11.321-85.5-45.5-1.502-4.678-3.002-9.345-4.5-14a8106.968 8106.968 0 0 0 39-138z"/><path style="opacity:1" fill="#e9a82d" d="M158.5 129.5c.722.418 1.222 1.084 1.5 2 .5-42.332.667-84.665.5-127h-36v5c-1.238-1.714-1.905-3.714-2-6h39c.333 44.338 0 88.672-1 133a18.404 18.404 0 0 1-2-7z"/><path style="opacity:1" fill="#0c0500" d="M78.5 90.5c30.254 1.752 45.087 17.752 44.5 48-6.625 24.955-22.791 36.122-48.5 33.5-18.48-4.814-29.314-16.648-32.5-35.5-.45-25.467 11.717-40.8 36.5-46z"/><path style="opacity:1" fill="#fda605" d="M50.5 152.5c-3.618-10.34-4.785-21.007-3.5-32 2.392-2.896 3.559-6.23 3.5-10 11.253-15.697 26.253-20.863 45-15.5 20.287 9.502 28.454 25.335 24.5 47.5-10.453 24.941-28.62 33.107-54.5 24.5-6.212-3.714-11.212-8.548-15-14.5z"/><path style="opacity:1" fill="#eda829" d="M24.5 65.5a1102.768 1102.768 0 0 1-14 50 68.159 68.159 0 0 1 3-16l8-28c.464-2.475 1.464-4.475 3-6z"/><path style="opacity:1" fill="#eda82b" d="M50.5 110.5c.059 3.77-1.108 7.104-3.5 10-1.285 10.993-.118 21.66 3.5 32-4.784-6.037-6.784-13.037-6-21-.557-7.844 1.443-14.844 6-21z"/><path style="opacity:1" fill="#fefefe" d="M-.5 131.5c6.76 40.428 30.093 65.428 70 75h-70v-75zM165.5 133.5v73h-70c38.669-9.669 62.003-34.002 70-73z"/></svg>
